X:102
T:The Blarney Pilgrim
T:from The Blarney Fife Medley
C:Trad. Irish, arr. C. Myers
M:6/8
L:1/8
K:G
%%MIDI program 72
%%MIDI transpose 8
D/D/|D>ED DEG|A2G ABc|BAG AGE|GEA GED|
D>ED DEG|A2G ABc|BAG AGE|GED D2::
d/d/|d>ed dBG|AGA BGE|d>ed dBG|AGA GBd|
g2e dBG|AGA Bcd|cBA BAG|AGE D2::
D|ADD BDD|ADD ABc|BAG AGE|GEA GED|
ADD BDD|ADD ABc|BAG AGE|[1 GED D2:|
[2 GED D3-|D6|D6||
